assets/svgs/mobile-ui-grey/MobileUiGrey11.svg

<svg xmlns="http://www.w3.org/2000/svg" data-name="Layer 3" viewBox="0 0 128 128"><path d="M75.978 24.711H52.026a2.11 2.11 0 00-2.111 2.111V55h-9.33a2.111 2.111 0 00-1.658 3.418l23.42 29.694a2.111 2.111 0 003.315 0l23.411-29.695A2.111 2.111 0 0087.415 55h-9.326V26.822a2.11 2.11 0 00-2.111-2.111zm7.086 34.51L64 83.4 44.939 59.221h7.088a2.11 2.11 0 002.111-2.111V28.933h19.728V57.11a2.11 2.11 0 002.111 2.111zM34.52 101.178a2.11 2.11 0 002.111 2.111h54.738a2.111 2.111 0 000-4.222H36.631a2.11 2.11 0 00-2.111 2.111z"/></svg>

<svg id="Layer_3" data-name="Layer 3" xmlns="http://www.w3.org/2000/svg" viewBox="0 0 128 128"><title>Artboard 107</title><path d="M75.978,24.711H52.026a2.11,2.11,0,0,0-2.111,2.111V55H40.585a2.111,2.111,0,0,0-1.658,3.418L62.347,88.112a2.111,2.111,0,0,0,3.315,0L89.073,58.417A2.111,2.111,0,0,0,87.415,55H78.089V26.822A2.11,2.11,0,0,0,75.978,24.711Zm7.086,34.51L64,83.4,44.939,59.221h7.088a2.11,2.11,0,0,0,2.111-2.111V28.933H73.866V57.11a2.11,2.11,0,0,0,2.111,2.111Z"/><path d="M34.52,101.178a2.11,2.11,0,0,0,2.111,2.111H91.369a2.111,2.111,0,0,0,0-4.222H36.631A2.11,2.11,0,0,0,34.52,101.178Z"/></svg>
